svgs/regular/pallet-boxes.svg

<svg xmlns="http://www.w3.org/2000/svg" viewBox="0 0 640 512"><!--! Font Awesome Pro 6.6.0 by @fontawesome - https://fontawesome.com License - https://fontawesome.com/license (Commercial License) Copyright 2024 Fonticons, Inc. --><path d="M272 48L112 48l0 160 160 0 0-160zM112 0L272 0c26.5 0 48 21.5 48 48l0 160c0 26.5-21.5 48-48 48l-160 0c-26.5 0-48-21.5-48-48L64 48C64 21.5 85.5 0 112 0zM528 112l-96 0 0 96 96 0 0-96zM432 64l96 0c26.5 0 48 21.5 48 48l0 96c0 26.5-21.5 48-48 48l-96 0c-26.5 0-48-21.5-48-48l0-96c0-26.5 21.5-48 48-48zM0 344c0-13.3 10.7-24 24-24l64 0 232 0 232 0 64 0c13.3 0 24 10.7 24 24s-10.7 24-24 24l-40 0 0 96 40 0c13.3 0 24 10.7 24 24s-10.7 24-24 24l-64 0-232 0L88 512l-64 0c-13.3 0-24-10.7-24-24s10.7-24 24-24l40 0 0-96-40 0c-13.3 0-24-10.7-24-24zM112 464l184 0 0-96-184 0 0 96zm232 0l184 0 0-96-184 0 0 96z"/></svg>

<svg xmlns="http://www.w3.org/2000/svg" viewBox="0 0 640 512"><!--! Font Awesome Pro 6.4.2 by @fontawesome - https://fontawesome.com License - https://fontawesome.com/license (Commercial License) Copyright 2023 Fonticons, Inc. --><path d="M272 48H112V208H272V48zM112 0H272c26.5 0 48 21.5 48 48V208c0 26.5-21.5 48-48 48H112c-26.5 0-48-21.5-48-48V48C64 21.5 85.5 0 112 0zM528 112H432v96h96V112zM432 64h96c26.5 0 48 21.5 48 48v96c0 26.5-21.5 48-48 48H432c-26.5 0-48-21.5-48-48V112c0-26.5 21.5-48 48-48zM0 344c0-13.3 10.7-24 24-24H88 320 552h64c13.3 0 24 10.7 24 24s-10.7 24-24 24H576v96h40c13.3 0 24 10.7 24 24s-10.7 24-24 24H552 320 88 24c-13.3 0-24-10.7-24-24s10.7-24 24-24H64V368H24c-13.3 0-24-10.7-24-24zM112 464H296V368H112v96zm232 0H528V368H344v96z"/></svg>
